X: 31434
T: Paddy Sean Nancy's
R: reel
M: 4/4
K: Gmajor
D3 A B2 Ac|BG ~G2 DEGE|D2 Ac BABc|dBAG EGG:|
Bd ~d2 edgd|B ~d2 B AGEG|Bd ~d2 efge|dBcA BGG:|

